svg/furkot/freepik/toilets.svg

<svg viewBox="0 0 512 512" xmlns="http://www.w3.org/2000/svg"><path d="m269.34 0c-13.283 0-24.096 10.768-24.096 24.051v463.898c0 13.271 10.813 24.051 24.096 24.051 13.26 0 24.062-10.757 24.062-24.051v-463.898c0-13.271-10.78-24.051-24.062-24.051zm238.306 260.255-14.406-123.292c-2.191-18.7-18.044-32.905-36.866-32.905h-82.521c-18.911 0-34.808 14.328-36.888 33.139l-13.65 123.18c-.256 2.236.378 4.517 1.791 6.297 1.391 1.769 3.449 2.937 5.696 3.193l24.952.111-5.651 52.429c-.245 2.37.511 4.583 2.091 6.363 1.602 1.758 3.871 2.626 6.241 2.626h2.425v164.607c0 8.844 7.464 15.863 16.319 15.863h16.031c8.832 0 15.807-7.019 15.807-15.863v-164.596h12.215v164.607c0 8.844 7.22 15.864 16.064 15.864h16.019c8.866 0 16.074-7.02 16.074-15.864v-164.607h2.548c2.403 0 4.706-.89 6.319-2.681s2.391-4.116 2.136-6.519l-5.362-52.452 25.207-.011c4.662-.567 7.988-4.828 7.409-9.489z"/><circle cx="415.236" cy="44.219" r="44.219"/><circle cx="114.644" cy="44.219" r="44.219"/><path d="m184.672 268.799 16.075.033c4.65-.656 7.898-4.95 7.242-9.6l-15.397-117.496c-2.836-21.504-21.147-37.678-42.84-37.678h-70.105c-21.693 0-40.015 16.174-42.84 37.689l-15.463 118.007c-.657 4.65 2.58 9 7.253 9.634l15.485.056-38.357 86.258c-1.157 2.626-.923 5.563.656 7.977 1.569 2.425 4.261 3.693 7.142 3.693h46.767v128.631c0 8.844 7.431 15.875 16.286 15.875h16.019c8.855 0 15.864-7.031 15.864-15.875v-128.642h12.192v128.642c0 8.844 7.186 15.863 16.041 15.863h16.02c8.855 0 16.119-7.019 16.119-15.863v-128.642h46.922c2.893 0 5.574-1.257 7.153-3.671 1.569-2.437 1.825-5.329.635-7.954z"/></svg>

<svg xmlns="http://www.w3.org/2000/svg" viewBox="0 0 512 512"><path d="M269.34 0C256.057 0 245.244 10.768 245.244 24.051L245.244 487.949C245.244 501.22 256.057 512 269.34 512 282.6 512 293.402 501.243 293.402 487.949L293.402 24.051C293.402 10.78 282.622 0 269.34 0zM507.646 260.255L493.24 136.963C491.049 118.263 475.196 104.058 456.374 104.058L373.853 104.058C354.942 104.058 339.045 118.386 336.965 137.197L323.315 260.377C323.059 262.613 323.693 264.894 325.106 266.674 326.497 268.443 328.555 269.611 330.802 269.867L355.754 269.978 350.103 322.407C349.858 324.777 350.614 326.99 352.194 328.77 353.796 330.528 356.065 331.396 358.435 331.396L360.86 331.396 360.86 496.003C360.86 504.847 368.324 511.866 377.179 511.866L393.21 511.866C402.042 511.866 409.017 504.847 409.017 496.003L409.017 331.407 421.232 331.407 421.232 496.014C421.232 504.858 428.452 511.878 437.296 511.878L453.315 511.878C462.181 511.878 469.389 504.858 469.389 496.014L469.389 331.407 471.937 331.407C474.34 331.407 476.643 330.517 478.256 328.726 479.869 326.935 480.647 324.61 480.392 322.207L475.03 269.755 500.237 269.744C504.899 269.177 508.225 264.916 507.646 260.255z"/><circle cx="415.236" cy="44.219" r="44.219"/><circle cx="114.644" cy="44.219" r="44.219"/><path d="M 184.672 268.799 L 200.747 268.832 C 205.397 268.176 208.645 263.882 207.989 259.232 L 192.592 141.736 C 189.756 120.232 171.445 104.058 149.752 104.058 L 79.647 104.058 C 57.954 104.058 39.632 120.232 36.807 141.747 L 21.344 259.754 C 20.687 264.404 23.924 268.754 28.597 269.388 L 44.082 269.444 L 5.725 355.702 C 4.568 358.328 4.802 361.265 6.381 363.679 C 7.95 366.104 10.642 367.372 13.523 367.372 L 60.29 367.372 L 60.29 496.003 C 60.29 504.847 67.721 511.878 76.576 511.878 L 92.595 511.878 C 101.45 511.878 108.459 504.847 108.459 496.003 L 108.459 367.361 L 120.651 367.361 L 120.651 496.003 C 120.651 504.847 127.837 511.866 136.692 511.866 L 152.712 511.866 C 161.567 511.866 168.831 504.847 168.831 496.003 L 168.831 367.361 L 215.753 367.361 C 218.646 367.361 221.327 366.104 222.906 363.69 C 224.475 361.253 224.731 358.361 223.541 355.736 L 184.672 268.799 Z"/></svg>
